austria/municipalities/40418.svg

<?xml version="1.0" encoding="UTF-8"?>
<!DOCTYPE svg PUBLIC "-//W3C//DTD SVG 1.1//EN" "http://www.w3.org/Graphics/SVG/1.1/DTD/svg11.dtd">
<svg xmlns="http://www.w3.org/2000/svg" version="1.1" width="166px" height="207px" style="shape-rendering:geometricPrecision; text-rendering:geometricPrecision; image-rendering:optimizeQuality; fill-rule:evenodd; clip-rule:evenodd" xmlns:xlink="http://www.w3.org/1999/xlink">
<g><path style="opacity:1" fill="#000000" d="M -0.5,-0.5 C 54.8333,-0.5 110.167,-0.5 165.5,-0.5C 165.5,44.5 165.5,89.5 165.5,134.5C 157.3,173.365 133.967,197.365 95.5,206.5C 86.8333,206.5 78.1667,206.5 69.5,206.5C 30.0336,197.035 6.70027,172.368 -0.5,132.5C -0.5,88.1667 -0.5,43.8333 -0.5,-0.5 Z"/></g>
<g><path style="opacity:1" fill="#006532" d="M 3.5,3.5 C 56.1667,3.5 108.833,3.5 161.5,3.5C 161.667,48.1679 161.5,92.8346 161,137.5C 152.819,172.347 131.319,193.847 96.5,202C 54.8039,206.263 25.3039,189.43 8,151.5C 6.03254,145.999 4.69921,140.332 4,134.5C 3.50001,90.8346 3.33334,47.1679 3.5,3.5 Z"/></g>
<g><path style="opacity:1" fill="#000000" d="M 77.5,51.5 C 77.1788,53.0481 76.1788,53.7148 74.5,53.5C 74.9993,62.3554 73.666,70.8554 70.5,79C 71.1307,82.5293 71.964,86.0293 73,89.5C 74.0763,91.5768 75.7429,92.9101 78,93.5C 80.9875,91.8459 83.3208,89.5125 85,86.5C 87.0244,77.7348 89.3577,69.0681 92,60.5C 94.8363,55.6547 98.8363,52.3214 104,50.5C 105.814,51.8514 105.481,52.8514 103,53.5C 100.701,58.0103 98.7015,62.6769 97,67.5C 96.3333,69.5 96.3333,71.5 97,73.5C 98.3876,74.5536 99.8876,74.7203 101.5,74C 107.498,68.4945 109.998,61.6611 109,53.5C 110.103,44.6199 114.27,37.6199 121.5,32.5C 120.615,37.7004 119.115,43.0337 117,48.5C 116.304,51.4781 115.804,54.4781 115.5,57.5C 116.552,57.6495 117.552,57.4828 118.5,57C 119.977,54.5551 121.81,52.3884 124,50.5C 127.21,41.2832 130.21,31.9499 133,22.5C 136.159,18.8446 139.992,16.6779 144.5,16C 143.267,17.6667 141.933,19.1667 140.5,20.5C 139.538,23.7568 138.038,26.7568 136,29.5C 135.506,31.1341 135.34,32.8008 135.5,34.5C 137.288,34.7852 138.955,34.4519 140.5,33.5C 147.045,24.9786 148.545,25.6453 145,35.5C 142.297,38.538 139.297,41.2046 136,43.5C 132.333,55.0055 125.166,63.6722 114.5,69.5C 110.523,78.2792 104.19,84.7792 95.5,89C 89.7396,95.7626 83.0729,101.429 75.5,106C 72.6499,108.858 72.1499,112.025 74,115.5C 79.8211,108.621 86.9877,106.788 95.5,110C 97.0074,110.837 97.5074,112.004 97,113.5C 92.795,118.017 87.9617,121.683 82.5,124.5C 88.1677,133.84 96.1677,140.173 106.5,143.5C 107.122,150.164 107.288,156.831 107,163.5C 105.93,166.242 104.43,168.742 102.5,171C 92.4468,177.87 81.7801,183.704 70.5,188.5C 67.3062,186.777 65.6395,184.111 65.5,180.5C 61.2307,179.216 59.3974,176.216 60,171.5C 59,170.833 58,170.167 57,169.5C 56.3414,163.692 54.8414,158.192 52.5,153C 52.6568,150.363 53.3235,147.863 54.5,145.5C 52.5787,144.359 50.5787,144.192 48.5,145C 45.0559,147.056 41.3892,148.556 37.5,149.5C 35.9996,149.547 34.9996,148.881 34.5,147.5C 36.2145,145.126 38.2145,142.96 40.5,141C 37.3585,142.022 34.0252,142.522 30.5,142.5C 30.5,140.5 30.5,138.5 30.5,136.5C 29.5,136.5 28.5,136.5 27.5,136.5C 27.5,135.167 27.5,133.833 27.5,132.5C 31.6972,131.404 35.6972,129.738 39.5,127.5C 41.8333,124.167 44.1667,120.833 46.5,117.5C 44.1506,114.983 41.6506,112.65 39,110.5C 38.5172,109.552 38.3505,108.552 38.5,107.5C 43.3368,107.116 48.0034,107.783 52.5,109.5C 53.7199,109.113 54.3865,108.28 54.5,107C 51.45,104.72 48.2834,102.553 45,100.5C 41.6667,95.1667 38.3333,89.8333 35,84.5C 34.3333,80.1667 34.3333,75.8333 35,71.5C 35.414,71.0426 35.914,70.7093 36.5,70.5C 37.7415,80.0702 42.0748,87.9036 49.5,94C 50.7589,94.9819 52.0922,95.3152 53.5,95C 55.7023,91.6688 57.0356,88.0021 57.5,84C 55.0773,77.654 52.244,71.4874 49,65.5C 47.99,59.9358 48.6567,54.6025 51,49.5C 52.4886,47.6682 54.322,46.8348 56.5,47C 53.9338,54.0761 54.1004,61.2428 57,68.5C 58.328,70.4947 59.9947,72.1613 62,73.5C 63.6532,73.1802 64.6532,72.1802 65,70.5C 65.5643,67.8453 66.0643,65.1786 66.5,62.5C 64.7522,51.0231 65.2522,39.6898 68,28.5C 69.2899,26.208 70.9565,24.208 73,22.5C 72.2703,30.1713 72.437,37.8379 73.5,45.5C 77.9566,43.572 81.79,40.572 85,36.5C 85.3333,31.8333 85.6667,27.1667 86,22.5C 89.8228,16.6681 94.8228,12.3348 101,9.5C 101.5,10 102,10.5 102.5,11C 97.2249,15.0593 93.5582,20.226 91.5,26.5C 92.2458,27.7362 92.5792,29.0695 92.5,30.5C 95.3198,30.7525 97.9865,30.2525 100.5,29C 102.452,26.9261 104.285,24.7594 106,22.5C 107.48,24.3369 107.48,26.3369 106,28.5C 103.088,33.2457 98.9213,36.2457 93.5,37.5C 89.0405,43.3012 83.7072,47.9678 77.5,51.5 Z"/></g>
<g><path style="opacity:1" fill="#fefffe" d="M 77.5,51.5 C 76.4168,51.5394 75.4168,51.8728 74.5,52.5C 73.3802,59.5046 72.2136,66.5046 71,73.5C 70.7743,70.5492 69.6077,68.0492 67.5,66C 67.5123,55.5571 67.6789,45.0571 68,34.5C 68.6667,32.5 69.3333,30.5 70,28.5C 70.6667,34.5 71.3333,40.5 72,46.5C 73.3876,47.5536 74.8876,47.7203 76.5,47C 80,43.5 83.5,40 87,36.5C 85.4669,27.4863 88.1335,20.153 95,14.5C 94.2677,17.2988 92.9343,19.9655 91,22.5C 90.6124,25.8492 90.7791,29.1825 91.5,32.5C 103.033,30.5976 103.366,31.7643 92.5,36C 87.2755,41.056 82.2755,46.2227 77.5,51.5 Z"/></g>
<g><path style="opacity:1" fill="#fefffe" d="M 140.5,20.5 C 139.542,20.9528 138.708,21.6195 138,22.5C 136.027,25.4639 134.527,28.6306 133.5,32C 133.645,33.2259 133.978,34.3926 134.5,35.5C 137.538,36.4958 140.204,36.4958 142.5,35.5C 139.946,37.7081 137.446,40.0414 135,42.5C 130.549,53.7859 123.049,62.4525 112.5,68.5C 109.804,74.3612 106.138,79.5279 101.5,84C 95.6345,86.8599 90.6345,90.8599 86.5,96C 82.3409,99.2467 78.0076,102.247 73.5,105C 72.3081,106.912 71.3081,108.912 70.5,111C 68.7111,111.52 67.0444,111.187 65.5,110C 66.7903,105.661 68.457,101.494 70.5,97.5C 67.308,88.6908 65.9747,79.6908 66.5,70.5C 66.8333,70.1667 67.1667,69.8333 67.5,69.5C 68.4575,76.9765 69.9575,84.3098 72,91.5C 73.8799,94.1924 76.3799,95.3591 79.5,95C 82.8321,92.5088 85.3321,89.3422 87,85.5C 88.9089,78.5877 90.5756,71.5877 92,64.5C 93.5862,62.3295 94.9196,59.9962 96,57.5C 96.8159,56.1772 97.9826,55.5106 99.5,55.5C 98.0351,60.5614 96.3684,65.5614 94.5,70.5C 94.5993,76.0222 97.2659,77.8555 102.5,76C 105.037,73.0937 107.204,69.927 109,66.5C 109.685,59.3674 111.019,52.3674 113,45.5C 114.001,42.8268 115.501,40.4935 117.5,38.5C 117.833,38.8333 118.167,39.1667 118.5,39.5C 115.659,45.8568 113.992,52.5235 113.5,59.5C 118.029,59.5039 121.529,57.5039 124,53.5C 129.108,44.8929 132.108,35.5595 133,25.5C 134.5,23.3333 136.333,21.5 138.5,20C 139.437,19.3083 140.103,19.475 140.5,20.5 Z"/></g>
<g><path style="opacity:1" fill="#fefffe" d="M 51.5,51.5 C 52.1442,57.1346 53.3109,62.8013 55,68.5C 56.9574,72.6427 60.124,74.9761 64.5,75.5C 65.0751,81.1667 65.2417,86.8333 65,92.5C 63.1667,94.3333 61.3333,96.1667 59.5,98C 60.4558,101.394 60.7892,104.894 60.5,108.5C 59.0695,108.421 57.7362,108.754 56.5,109.5C 55.7022,107.922 55.2022,106.256 55,104.5C 45.5282,99.5896 39.3616,91.923 36.5,81.5C 36.6667,80.8333 36.8333,80.1667 37,79.5C 40.0109,87.3355 45.1775,93.0021 52.5,96.5C 53.9945,96.2908 55.1612,95.6241 56,94.5C 57.4521,91.2633 58.6188,87.93 59.5,84.5C 57.4913,78.1476 54.6579,72.1476 51,66.5C 50.3369,61.4626 50.5036,56.4626 51.5,51.5 Z"/></g>
<g><path style="opacity:1" fill="#fefffe" d="M 99.5,55.5 C 99.5173,53.9719 100.184,53.4719 101.5,54C 100.956,54.7172 100.289,55.2172 99.5,55.5 Z"/></g>
<g><path style="opacity:1" fill="#006632" d="M 64.5,109.5 C 64.1667,109.5 63.8333,109.5 63.5,109.5C 62.8662,105.663 62.1995,101.83 61.5,98C 64,96.8333 65.8333,95 67,92.5C 67.4497,94.519 68.283,96.3523 69.5,98C 66.3005,101.136 64.6338,104.969 64.5,109.5 Z"/></g>
<g><path style="opacity:1" fill="#fefffe" d="M 41.5,110.5 C 46.3601,108.659 50.6935,109.659 54.5,113.5C 55.3857,112.675 55.719,111.675 55.5,110.5C 57.1439,110.714 58.6439,110.38 60,109.5C 61.5778,110.711 61.7445,112.045 60.5,113.5C 53.2839,117.023 46.9506,116.023 41.5,110.5 Z"/></g>
<g><path style="opacity:1" fill="#fefffe" d="M 63.5,109.5 C 63.8333,109.5 64.1667,109.5 64.5,109.5C 65.665,112.59 67.9983,113.924 71.5,113.5C 71.5,114.5 71.5,115.5 71.5,116.5C 66.2824,116.944 63.6157,114.611 63.5,109.5 Z"/></g>
<g><path style="opacity:1" fill="#fbfbfb" d="M 88.5,109.5 C 90.6365,110.787 92.9699,111.621 95.5,112C 90.552,118.646 83.8853,122.479 75.5,123.5C 77.0777,124.298 78.7444,124.798 80.5,125C 86.0309,134.712 94.0309,141.212 104.5,144.5C 106.318,152.359 105.818,160.026 103,167.5C 92.9728,175.262 82.1394,181.595 70.5,186.5C 69.2011,185.91 68.3678,184.91 68,183.5C 67.0551,179.886 66.3884,176.219 66,172.5C 65.8078,174.577 65.3078,176.577 64.5,178.5C 63.914,178.291 63.414,177.957 63,177.5C 61.5282,172.473 61.0282,167.473 61.5,162.5C 60.2096,164.657 59.3763,166.99 59,169.5C 57.7169,164.499 57.5503,159.499 58.5,154.5C 58.1667,153.833 57.8333,153.167 57.5,152.5C 56.7022,154.078 56.2022,155.744 56,157.5C 55.6667,157.167 55.3333,156.833 55,156.5C 54.5027,152.476 54.6693,148.476 55.5,144.5C 61.7316,145.061 67.7316,144.228 73.5,142C 77.9361,138.525 78.4361,134.691 75,130.5C 76.7251,136.458 74.5584,140.291 68.5,142C 57.7764,141.255 47.6097,143.088 38,147.5C 37.5,147.333 37,147.167 36.5,147C 40.1816,145.68 41.6816,143.18 41,139.5C 40.586,139.043 40.086,138.709 39.5,138.5C 37.3821,139.946 35.0488,140.613 32.5,140.5C 32.5,138.833 32.5,137.167 32.5,135.5C 31.1266,135.657 29.7932,135.49 28.5,135C 32.4689,133.016 36.4689,131.016 40.5,129C 43.1527,124.994 46.1527,121.327 49.5,118C 53.3051,117.039 57.1384,116.206 61,115.5C 64.7781,116.971 68.6114,118.305 72.5,119.5C 76.6349,113.991 81.9683,110.658 88.5,109.5 Z"/></g>
<g><path style="opacity:1" fill="#000000" d="M 85.5,116.5 C 85.8256,113.999 87.1589,112.832 89.5,113C 88.4677,114.627 87.1344,115.793 85.5,116.5 Z"/></g>
<g><path style="opacity:1" fill="#000000" d="M 85.5,116.5 C 83.484,119.144 80.8173,119.977 77.5,119C 80.154,118.059 82.8206,117.226 85.5,116.5 Z"/></g>
<g><path style="opacity:1" fill="#000000" d="M 54.5,119.5 C 59.6294,120.614 59.6294,121.281 54.5,121.5C 54.6602,123.199 54.4935,124.866 54,126.5C 53.4387,127.022 52.772,127.355 52,127.5C 50.4587,125.983 48.6254,124.816 46.5,124C 49.3911,122.726 52.0578,121.226 54.5,119.5 Z"/></g>
<g><path style="opacity:1" fill="#fefffe" d="M 50.5,123.5 C 52.9828,123.73 53.4828,124.397 52,125.5C 50.9701,125.164 50.4701,124.497 50.5,123.5 Z"/></g>
<g><path style="opacity:1" fill="#000000" d="M 41.5,129.5 C 43.8418,129.775 43.8418,130.608 41.5,132C 40.2411,132.982 38.9078,133.315 37.5,133C 39.0931,132.051 40.4264,130.885 41.5,129.5 Z"/></g>
<g><path style="opacity:1" fill="#000000" d="M 69.5,131.5 C 70.6491,131.791 71.3158,132.624 71.5,134C 71.1667,134.833 70.8333,135.667 70.5,136.5C 69.5481,134.955 69.2148,133.288 69.5,131.5 Z"/></g>
<g><path style="opacity:1" fill="#fefffe" d="M -0.5,132.5 C 6.70027,172.368 30.0336,197.035 69.5,206.5C 46.1667,206.5 22.8333,206.5 -0.5,206.5C -0.5,181.833 -0.5,157.167 -0.5,132.5 Z"/></g>
<g><path style="opacity:1" fill="#fefffe" d="M 165.5,134.5 C 165.5,158.5 165.5,182.5 165.5,206.5C 142.167,206.5 118.833,206.5 95.5,206.5C 133.967,197.365 157.3,173.365 165.5,134.5 Z"/></g>
<g><path style="opacity:1" fill="#000000" d="M 78.5,139.5 C 79.7965,140.849 79.6298,142.182 78,143.5C 77.805,142.181 77.9717,140.847 78.5,139.5 Z"/></g>
<g><path style="opacity:1" fill="#000000" d="M 82.5,140.5 C 83.874,142.517 83.7074,144.517 82,146.5C 82.1349,144.575 82.3016,142.575 82.5,140.5 Z"/></g>
<g><path style="opacity:1" fill="#000000" d="M 91.5,142.5 C 92.7928,144.364 92.7928,146.364 91.5,148.5C 91.2537,146.78 91.2537,144.78 91.5,142.5 Z"/></g>
<g><path style="opacity:1" fill="#000000" d="M 95.5,145.5 C 96.8799,145.962 97.5466,146.962 97.5,148.5C 97.1012,150.197 96.6012,151.863 96,153.5C 95.5026,150.854 95.3359,148.187 95.5,145.5 Z"/></g>
<g><path style="opacity:1" fill="#000000" d="M 100.5,147.5 C 101.797,149.693 101.797,152.027 100.5,154.5C 99.9426,152.282 99.9426,149.949 100.5,147.5 Z"/></g>
</svg>

<svg xmlns="http://www.w3.org/2000/svg" width="166" height="207" style="shape-rendering:geometricPrecision;text-rendering:geometricPrecision;image-rendering:optimizeQuality;fill-rule:evenodd;clip-rule:evenodd"><path style="opacity:1" d="M-.5-.5h166v135c-8.2 38.865-31.533 62.865-70 72h-26c-39.466-9.465-62.8-34.132-70-74V-.5z"/><path style="opacity:1" fill="#006532" d="M3.5 3.5h158a8973.7 8973.7 0 0 1-.5 134c-8.181 34.847-29.681 56.347-64.5 64.5-41.696 4.263-71.196-12.57-88.5-50.5a77.833 77.833 0 0 1-4-17c-.5-43.665-.667-87.332-.5-131z"/><path style="opacity:1" d="M77.5 51.5c-.321 1.548-1.321 2.215-3 2 .5 8.855-.834 17.355-4 25.5A95.29 95.29 0 0 0 73 89.5c1.076 2.077 2.743 3.41 5 4 2.987-1.654 5.32-3.987 7-7a373.124 373.124 0 0 1 7-26c2.836-4.845 6.836-8.179 12-10 1.814 1.351 1.481 2.351-1 3a115.135 115.135 0 0 0-6 14c-.667 2-.667 4 0 6 1.388 1.054 2.888 1.22 4.5.5 5.998-5.505 8.498-12.339 7.5-20.5 1.103-8.88 5.27-15.88 12.5-21-.885 5.2-2.385 10.534-4.5 16a70.529 70.529 0 0 0-1.5 9 4.932 4.932 0 0 0 3-.5 26.91 26.91 0 0 1 5.5-6.5 612.02 612.02 0 0 0 9-28c3.159-3.655 6.992-5.822 11.5-6.5a32.634 32.634 0 0 1-4 4.5 28.535 28.535 0 0 1-4.5 9 12.93 12.93 0 0 0-.5 5c1.788.285 3.455-.048 5-1 6.545-8.521 8.045-7.855 4.5 2a51.073 51.073 0 0 1-9 8c-3.667 11.505-10.834 20.172-21.5 26-3.977 8.78-10.31 15.28-19 19.5a81.296 81.296 0 0 1-20 17c-2.85 2.858-3.35 6.025-1.5 9.5 5.821-6.879 12.988-8.712 21.5-5.5 1.507.837 2.007 2.004 1.5 3.5a52.63 52.63 0 0 1-14.5 11c5.668 9.34 13.668 15.673 24 19 .622 6.664.788 13.331.5 20a26.035 26.035 0 0 1-4.5 7.5 184.567 184.567 0 0 1-32 17.5c-3.194-1.723-4.86-4.389-5-8-4.27-1.284-6.103-4.284-5.5-9l-3-2c-.659-5.808-2.159-11.308-4.5-16.5a19.219 19.219 0 0 1 2-7.5c-1.921-1.141-3.921-1.308-6-.5a39.535 39.535 0 0 1-11 4.5c-1.5.047-2.5-.619-3-2a37.371 37.371 0 0 1 6-6.5c-3.142 1.022-6.475 1.522-10 1.5v-6h-3v-4a46.942 46.942 0 0 0 12-5l7-10a74.133 74.133 0 0 0-7.5-7 4.932 4.932 0 0 1-.5-3c4.837-.384 9.503.283 14 2 1.22-.387 1.886-1.22 2-2.5a138.45 138.45 0 0 0-9.5-6.5l-10-16a42.498 42.498 0 0 1 0-13c.414-.457.914-.79 1.5-1 1.242 9.57 5.575 17.404 13 23.5 1.259.982 2.592 1.315 4 1 2.202-3.331 3.536-6.998 4-11A154.37 154.37 0 0 0 49 65.5c-1.01-5.564-.343-10.898 2-16 1.489-1.832 3.322-2.665 5.5-2.5-2.566 7.076-2.4 14.243.5 21.5a17.855 17.855 0 0 0 5 5c1.653-.32 2.653-1.32 3-3a168.855 168.855 0 0 0 1.5-8c-1.748-11.477-1.248-22.81 1.5-34a21.52 21.52 0 0 1 5-6 98.757 98.757 0 0 0 .5 23c4.457-1.928 8.29-4.928 11.5-9l1-14c3.823-5.832 8.823-10.165 15-13l1.5 1.5c-5.275 4.06-8.942 9.226-11 15.5a6.845 6.845 0 0 1 1 4c2.82.253 5.487-.247 8-1.5a80.412 80.412 0 0 0 5.5-6.5c1.48 1.837 1.48 3.837 0 6-2.912 4.746-7.079 7.746-12.5 9-4.46 5.801-9.793 10.468-16 14z"/><path style="opacity:1" fill="#fefffe" d="M77.5 51.5a5.576 5.576 0 0 0-3 1 1606.668 1606.668 0 0 1-3.5 21c-.226-2.95-1.392-5.45-3.5-7.5.012-10.443.179-20.943.5-31.5l2-6 2 18c1.388 1.054 2.888 1.22 4.5.5L87 36.5c-1.533-9.014 1.133-16.347 8-22-.732 2.799-2.066 5.465-4 8-.388 3.35-.22 6.683.5 10 11.533-1.902 11.866-.736 1 3.5a325.51 325.51 0 0 0-15 15.5z"/><path style="opacity:1" fill="#fefffe" d="M140.5 20.5c-.958.453-1.792 1.12-2.5 2a36.004 36.004 0 0 0-4.5 9.5 11.254 11.254 0 0 0 1 3.5c3.038.996 5.704.996 8 0a136.649 136.649 0 0 0-7.5 7c-4.451 11.286-11.951 19.953-22.5 26a50.88 50.88 0 0 1-11 15.5c-5.865 2.86-10.865 6.86-15 12a138.017 138.017 0 0 1-13 9 35.625 35.625 0 0 0-3 6c-1.789.52-3.456.187-5-1a73.21 73.21 0 0 1 5-12.5c-3.192-8.81-4.525-17.81-4-27l1-1a150.235 150.235 0 0 0 4.5 22c1.88 2.692 4.38 3.86 7.5 3.5 3.332-2.491 5.832-5.658 7.5-9.5a303.51 303.51 0 0 0 5-21 36.178 36.178 0 0 0 4-7c.816-1.323 1.983-1.99 3.5-2a197.726 197.726 0 0 1-5 15c.1 5.522 2.766 7.356 8 5.5a48.941 48.941 0 0 0 6.5-9.5 115.414 115.414 0 0 1 4-21 19.35 19.35 0 0 1 4.5-7l1 1a58.774 58.774 0 0 0-5 20c4.529.004 8.029-1.996 10.5-6 5.108-8.607 8.108-17.94 9-28 1.5-2.167 3.333-4 5.5-5.5.937-.692 1.603-.525 2 .5zM51.5 51.5c.644 5.635 1.81 11.301 3.5 17 1.957 4.143 5.124 6.476 9.5 7 .575 5.667.742 11.333.5 17L59.5 98c.956 3.394 1.29 6.894 1 10.5a6.845 6.845 0 0 0-4 1 14.729 14.729 0 0 1-1.5-5c-9.472-4.91-15.638-12.577-18.5-23l.5-2c3.01 7.835 8.178 13.502 15.5 17 1.495-.21 2.661-.876 3.5-2a62.194 62.194 0 0 0 3.5-10 74.033 74.033 0 0 0-8.5-18 45.513 45.513 0 0 1 .5-15z"/><path style="opacity:1" fill="#fefffe" d="M99.5 55.5c.017-1.528.684-2.028 2-1.5-.544.717-1.211 1.217-2 1.5z"/><path style="opacity:1" fill="#006632" d="M64.5 109.5h-1c-.634-3.837-1.3-7.67-2-11.5 2.5-1.167 4.333-3 5.5-5.5a14.437 14.437 0 0 0 2.5 5.5c-3.2 3.136-4.866 6.969-5 11.5z"/><path style="opacity:1" fill="#fefffe" d="M41.5 110.5c4.86-1.841 9.194-.841 13 3 .886-.825 1.219-1.825 1-3 1.644.214 3.144-.12 4.5-1 1.578 1.211 1.745 2.545.5 4-7.216 3.523-13.55 2.523-19-3zM63.5 109.5h1c1.165 3.09 3.498 4.424 7 4v3c-5.218.444-7.884-1.889-8-7z"/><path style="opacity:1" fill="#fbfbfb" d="M88.5 109.5a18.834 18.834 0 0 0 7 2.5c-4.948 6.646-11.615 10.479-20 11.5a14.72 14.72 0 0 0 5 1.5c5.53 9.712 13.53 16.212 24 19.5 1.818 7.859 1.318 15.526-1.5 23a144.64 144.64 0 0 1-32.5 19c-1.299-.59-2.132-1.59-2.5-3a73.682 73.682 0 0 1-2-11 20.211 20.211 0 0 1-1.5 6 3.647 3.647 0 0 1-1.5-1c-1.472-5.027-1.972-10.027-1.5-15a18.984 18.984 0 0 0-2.5 7c-1.283-5.001-1.45-10.001-.5-15l-1-2a14.729 14.729 0 0 0-1.5 5l-1-1a36.433 36.433 0 0 1 .5-12c6.232.561 12.232-.272 18-2.5 4.436-3.475 4.936-7.309 1.5-11.5 1.725 5.958-.442 9.791-6.5 11.5-10.724-.745-20.89 1.088-30.5 5.5l-1.5-.5c3.682-1.32 5.182-3.82 4.5-7.5a3.647 3.647 0 0 0-1.5-1c-2.118 1.446-4.451 2.113-7 2v-5a8.43 8.43 0 0 1-4-.5l12-6a69.77 69.77 0 0 1 9-11 176.81 176.81 0 0 1 11.5-2.5 166.451 166.451 0 0 0 11.5 4c4.135-5.509 9.468-8.842 16-10z"/><path style="opacity:1" d="M85.5 116.5c.326-2.501 1.659-3.668 4-3.5-1.032 1.627-2.366 2.793-4 3.5zM85.5 116.5c-2.016 2.644-4.683 3.477-8 2.5 2.654-.941 5.32-1.774 8-2.5zM54.5 119.5c5.13 1.114 5.13 1.781 0 2a12.935 12.935 0 0 1-.5 5 3.944 3.944 0 0 1-2 1c-1.541-1.517-3.375-2.684-5.5-3.5 2.891-1.274 5.558-2.774 8-4.5z"/><path style="opacity:1" fill="#fefffe" d="M50.5 123.5c2.483.23 2.983.897 1.5 2-1.03-.336-1.53-1.003-1.5-2z"/><path style="opacity:1" d="M41.5 129.5c2.342.275 2.342 1.108 0 2.5-1.259.982-2.592 1.315-4 1 1.593-.949 2.926-2.115 4-3.5zM69.5 131.5c1.15.291 1.816 1.124 2 2.5l-1 2.5c-.952-1.545-1.285-3.212-1-5z"/><path style="opacity:1" fill="#fefffe" d="M-.5 132.5c7.2 39.868 30.534 64.535 70 74h-70v-74zM165.5 134.5v72h-70c38.467-9.135 61.8-33.135 70-72z"/><path style="opacity:1" d="M78.5 139.5c1.296 1.349 1.13 2.682-.5 4-.195-1.319-.028-2.653.5-4zM82.5 140.5c1.374 2.017 1.207 4.017-.5 6 .135-1.925.302-3.925.5-6zM91.5 142.5c1.293 1.864 1.293 3.864 0 6-.246-1.72-.246-3.72 0-6zM95.5 145.5c1.38.462 2.047 1.462 2 3a43.067 43.067 0 0 1-1.5 5 32.438 32.438 0 0 1-.5-8zM100.5 147.5c1.297 2.193 1.297 4.527 0 7-.557-2.218-.557-4.551 0-7z"/></svg>
